X:18
T:Aval dins la Bas-Pais
R:Bourre  3 temps
A:Massif Central
O:France
M:3/4
L:1/4
Q:1/4=180
K:F
c/2d/2|:c B/2c/2B/2A/2|G/2A/2 B c/2d/2|c B/2c/2B/2A/2|1G2
c/2d/2:|2G2B|
|:AGF|EC2|C/2D/2 EC|F G/2A/2 B|A G/2A/2G/2F/2|EC2|C/2D/2
EC|1F2B:|2F2||
